X: 2
T: The Sleeping Tune
R: reel
M: 4/4
L: 1/8
K: Amin
A2 e2 e2 ed | (3def fe edBc | d4 d4- | d2 dc decB |
c4 c4- | c2 cB cdBA | B4- BABc | d4- decB |
A2 e2 e2 ed | (3def fe edBc | d3 c d4- | d2 dc decB |
c3 B c4- | c2 cB cdBA | B4- BABc | d4- deed |
c2 g2- g2 Bc | gBcg BccA | B2 g4 BA | B2 BA BccB |
A2 g4 AG | A2 AG ABcA | B3 A B3- B/c/- | cddc deed |
c2 g2- g2 Bc | gBcg BccA | B2 g4 BA | B2 BA BccB |
A2 e4 AG | A2 AG ABcA | B3 A B3 c | d4 decB ||


Tune 7425	Setting 28974

